X:1
T:Tu vedi Amor
T:Stefano Landi
T:Source  : Arie---Sesto libro---Venetia---B.Magni---1638. Editor : André Vierendeels (20/08/17).
T:Tu vedi Amor
T:©
T:©
T:©
C:Stefano Landi
Z:©
%%score 1 2
L:1/8
Q:1/4=120
M:4/4
K:F
V:1 treble nm="Soprano" snm="S"
V:2 bass nm="MusicXML Part"
V:1
 z4 B4 | c2 d2 _e2 c2 | d3 c B2 d2 | c2 B2 A2 G2 | ^F3 E D3 A | A2 B2 c2 A2 | B3 A G3 d | %7
w: Tu|ve- di'A- mor che|man- ca- no le|forz' al cor- po|las- so _ ch'al|pie vac- cil- la'il|pas- so _ le|
w: Fà|se tu puo- i|che ter- ni- no'i|ver- di'an- ni pas-|a- ti e di|co- * lor piu|gra- ti le guan-|
w: Che|mai si puo pre-|ten- de- re ne|pun- to'è co- sa|li- e- ve col|crin _ car- co|di ne- ve il|
 A2 B2 G3 A | A3 G F2 z A | c2 F2 G4 | A2 B2 c2 A2 | A2 G2 G4 | F2 c2 f4 | e4 e4 | d2 f2 e3 d | %15
w: chio- me'al ca- po'im-|bian- * can, a|che frà tuo-|i se- gua- ci|mi ri- chia-|mi à che|pur vuo-|i fuor dis sta-|
w: cie'à me s'a- dor-|ni- * no, fa|che'l vi- go-|re per- du- to|si rav- vi-|vi, e poi|si- gno-|re frà ser- *|
w: cor di don- n'ac-|cen- de- re, e|sen- za que-|sti in trop- po'a-|cer- bo sta-|to, vi- vo,|e mo-|le- * sto a-|
 d2 _e2 c4 | d2 d2 c2 B2 | A2 c2 A4 | G8 |] %19
w: gion ch'io a-|mi fuor di sta-|gion ch'io a-|mi.|
w: * vi tuo-|i mi se- *|* * ri-|ni.|
w: man- * *|te non a- *|* * ma-|to.|
V:2
 G,8 |"^6" A,2 B,2 G,2 A,2 | B,3 A, G,2 B,2 |"^6" A,2 G,2 F,2 E,2 | D,6 D2 |"^7#6" C2 B,2 A,4 | %6
 G,6 B,2 | F,2 G,2 _E,4 | D,6 D,2 |"^6""^7 6" A,,2 B,,2 G,,4 | F,,6 G,,2 |"^4 3" A,,2 B,,2 C,4 | %12
 F,,6 F,2 |"^4 3" B,2 G,2 A,4 | D,4 E,2 ^F,2 | G,2 C,2 F,4 | B,,2 B,2 A,2 G,2 | F,2 _E,2 D,4 | %18
 G,,8 |] %19

